X:1
T:Title
%%score ( 1 2 3 ) { 4 | 5 }
L:1/8
Q:1/4=110
M:4/4
K:F
V:1 treble nm="Grand Piano, Staff"
V:2 treble 
V:3 treble 
V:4 bass nm="Choir Pad, Carlton, 87.87 D"
V:5 bass 
V:1
 [Fc]2 [Fc]2 [Fd]2 [Ec]2 | [CA]2 F2 [EA]2 [EG]2 | F2 [CF]2 [FG]2 [FA]2 | [Fc]2 [FB]2 [EG]4 | %4
w: By~Joseph~Barnby,~1869 * * *||||
 [EG]2 [Gc]2 [Gd]2 [Gc]2 | [EG]2 [Gc]2 [Gd]2 [Gc]2 | G2 [Ge]2 [Gd]2 [Gc]2 | [GA]2 [F=B]2 [Ec]4 | %8
w: ||||
 [EG]2 [EG]2 F2 [FB]2 | [FA]2 [EG]2 [EG]2 [FA]2 | [Fc]2 [Fc]2 [FB]2 [_E_e]2 | [Fd]2 [Fc]2 [Fd]4 | %12
w: ||||
 [Fd]2 [Ge]2 [Ff]2 [Fc]2 | [FB]2 [FA]2 [FA]2 [FG]2 | [EG]2 [Ed]2 [Fc]2 F2 | A4 z4 | z8 |] %17
w: |||||
V:2
 x8 | x8 | x8 | x8 | x8 | x8 | x8 | x8 | x8 | x8 | x8 | x8 | x8 | x8 | x8 | F2 z G F4- | F4 z4 |] %17
V:3
 x8 | x8 | x8 | x8 | x8 | x8 | x8 | x8 | x8 | x8 | x8 | x8 | x8 | x8 | x8 | z2 E2 z4 | x8 |] %17
V:4
 A,2 A,2 B,2 G,2 | F,2 C2 C2 B,2 | A,2 A,2 B,2[K:treble] C2 | _E2 D2 G,4 | C2 C2 =B,2 C2 | %5
 C2 C2[K:bass] =B,2 C2 | G,2 C2 =B,2[K:treble] CE | E2 D2 C4 | C2 B,2 A,2 D2 | %9
 C2 C2[K:bass] B,2 A,2 | A,2 A,2 B,2 B,2 | B,2 A,2 B,4 | B,2 B,2 C2 A,2 | B,2[K:treble] C2 D2 D2 | %14
 C2 C2 C2[K:bass] B,2 | C2 B,2 A,4- | A,4 z4 |] %17
V:5
 F,2 F,2 B,,2 C,2 | z2 A,2 z2 C,2 | D,2 _E,2 D,2 C,2 | A,,2 B,,2 C,4 | C,2 E,2 F,2 E,2 | %5
 C,2 E,2 F,2 E,2 | z2 C,2 D,2 E,2 | F,2 G,2 C,4 | C,2 C,2 D,2 B,,2 | C,2 C,2 F,2 F,2 | %10
 F,2 _E,2 D,2 G,2 | F,2 F,2 z4 | z2 G,2 A,2 F,2 | D,2 C,2 B,,2 B,,2 | B,2 B,2 A,2 D,2 | %15
 C,2 C,2 F,4- | F,4 z4 |] %17

